src/images/technology-icons/react-logo.svg

<?xml version="1.0" encoding="UTF-8"?>
<svg width="280px" height="87px" viewBox="0 0 280 87" version="1.1" xmlns="http://www.w3.org/2000/svg" xmlns:xlink="http://www.w3.org/1999/xlink">
    <!-- Generator: Sketch 42 (36781) - http://www.bohemiancoding.com/sketch -->
    <title>react-logo</title>
    <desc>Created with Sketch.</desc>
    <defs></defs>
    <g id="Page-1" stroke="none" stroke-width="1" fill="none" fill-rule="evenodd">
        <g id="react-logo" fill-rule="nonzero" fill="#00D8FF">
            <g>
                <g id="logo-(1)">
                    <ellipse id="Oval" cx="48.8705022" cy="43.3328208" rx="8.70846869" ry="8.70846869"></ellipse>
                    <path d="M48.8705022,27.7097582 C37.47859,27.7097582 26.5285699,29.33961 18.3993778,32.1736261 C9.5693941,35.2521858 4.27516429,39.7817199 4.27516429,43.3328208 C4.27516429,45.0014775 5.4963276,47.05805 7.91511786,49.1294513 C10.6068618,51.4346044 14.5339642,53.5469397 19.2893236,55.1723277 C26.8851664,57.7686864 37.2832425,59.129473 48.8705022,59.129473 C59.9004709,59.129473 70.1825681,57.7416435 77.8675693,55.1954071 C87.520727,51.9970336 93.46584,47.102756 93.46584,43.3328208 C93.46584,39.7936245 87.9609783,35.2002894 78.936363,32.0934937 C70.81057,29.296081 60.1221559,27.7097582 48.8705022,27.7097582 Z M48.8705022,23.5436082 C60.5609037,23.5436082 71.7033657,25.1973186 80.292493,28.1542402 C90.8254314,31.7802882 97.6319901,37.4597778 97.6319901,43.3328208 C97.6319901,49.4575311 90.3579226,55.4458624 79.1778796,59.1501376 C71.0309911,61.8494089 60.3163366,63.2956231 48.8705022,63.2956231 C36.8606976,63.2956231 26.0254175,61.87762 17.9418441,59.1145486 C7.18762197,55.4387414 0.109014259,49.37677 0.109014259,43.3328208 C0.109014259,37.4809307 6.70285599,31.8394999 17.0278723,28.2396994 C25.6273736,25.2417232 37.0360143,23.5436082 48.8705022,23.5436082 Z" id="Shape"></path>
                    <path d="M35.2614699,35.5714379 C29.5701988,45.4402943 25.5118276,55.7400174 23.9059527,64.1976826 C22.161548,73.3847964 23.4404559,80.2337508 26.5166187,82.0078193 C27.9622189,82.8414478 30.3538579,82.8110122 33.3565991,81.7505282 C36.6982087,80.5703654 40.4899117,78.2237138 44.2735915,74.9162456 C50.3175553,69.6331698 56.6908623,61.3055689 62.4795266,51.267807 C67.9897177,41.7128645 71.924121,32.112432 73.5576864,24.1830622 C75.6095316,14.2231921 74.3396973,6.62790128 71.0738756,4.74461257 C68.0079731,2.97659299 61.2788216,5.45061983 54.0790167,11.7162758 C47.5962699,17.3579999 40.8824137,25.8246154 35.2614699,35.5714379 Z M31.6524506,33.4901435 C37.4925808,23.3632478 44.4916363,14.5369773 51.3440336,8.57355831 C59.7471765,1.26069307 68.0674805,-1.79833382 73.1551062,1.13555656 C78.4608584,4.19520408 80.0145537,13.4883598 77.6381461,25.0236895 C75.9064056,33.429604 71.8064932,43.4338993 66.0885547,53.349086 C60.088792,63.7529006 53.4474978,72.4306634 47.0154643,78.052954 C38.4587725,85.5327057 29.671243,88.6362147 24.4353301,85.6168419 C19.3660429,82.6933091 17.773188,74.1630696 19.8129302,63.4205255 C21.5117132,54.4735415 25.7400713,43.742409 31.6524506,33.4901435 Z" id="Shape"></path>
                    <path d="M35.274492,51.2904853 C40.982338,61.1497814 47.8789185,69.8097033 54.404228,75.4248719 C61.4923665,81.5243891 68.0648745,83.8368464 71.1382052,82.0576549 C72.5823959,81.2216021 73.7504553,79.1344124 74.3313091,76.0033464 C74.9777157,72.518921 74.8382914,68.0619665 73.8624366,63.1321162 C72.3036997,55.2573609 68.2717812,45.5767622 62.4663425,35.5487524 C56.9400311,26.0028192 50.5875858,17.7997699 44.5336187,12.4245345 C36.9296435,5.67275489 29.7151425,2.9796861 26.4524541,4.86855423 C23.3894777,6.64169683 22.1722161,13.7072522 24.0049569,23.0740119 C25.6551322,31.5079733 29.6373298,41.5529918 35.274492,51.2904853 Z M31.6689561,53.3778084 C25.8119622,43.2605828 21.6606013,32.7888532 19.9163349,23.8739973 C17.7772752,12.9417045 19.2823749,4.20540199 24.3651556,1.26300419 C29.6657238,-1.80565366 38.4929994,1.48944052 47.299749,9.3091968 C53.7175307,15.0074582 60.3372191,23.5556043 66.0718809,33.4614338 C72.08902,43.8551237 76.2904692,53.9427641 77.9492903,62.3231457 C80.156173,73.4719375 78.4562933,82.6350616 73.2254974,85.6632086 C68.1609801,88.5951241 59.9750107,85.71499 51.6867854,78.5827685 C44.7839732,72.642751 37.5985485,63.6201321 31.6689561,53.3778084 Z" id="Shape"></path>
                </g>
                <path d="M155.459888,59.8884067 L143.586361,41.9461872 C149.589089,41.4184749 154.99814,37.0648481 154.99814,29.1491631 C154.99814,21.0355859 149.259268,15.8903906 141.211655,15.8903906 L123.533292,15.8903906 L123.533292,59.8884067 L129.008308,59.8884067 L129.008308,42.4079355 L137.781525,42.4079355 L148.995412,59.8884067 L155.459888,59.8884067 Z M140.552015,37.5925604 L129.008308,37.5925604 L129.008308,20.7717297 L140.552015,20.7717297 C145.763174,20.7717297 149.325232,24.2018599 149.325232,29.1491631 C149.325232,34.0964662 145.763174,37.5925604 140.552015,37.5925604 L140.552015,37.5925604 Z M175.842777,60.6799752 C181.053937,60.6799752 185.3416,58.9649101 188.507874,55.7986361 L186.133168,52.566398 C183.626534,55.1389957 179.932548,56.5902046 176.304526,56.5902046 C169.444265,56.5902046 165.222567,51.5769374 164.826782,45.5742095 L190.618723,45.5742095 L190.618723,44.3208927 C190.618723,34.7561066 184.945815,27.2362058 175.315065,27.2362058 C166.212027,27.2362058 159.615623,34.6901426 159.615623,43.9251085 C159.615623,53.8856789 166.409919,60.6799752 175.842777,60.6799752 L175.842777,60.6799752 Z M185.737384,41.9461872 L164.826782,41.9461872 C165.090639,37.0648481 168.454805,31.3259764 175.249101,31.3259764 C182.505146,31.3259764 185.67142,37.1967762 185.737384,41.9461872 L185.737384,41.9461872 Z M223.468816,59.8884067 L223.468816,37.9883447 C223.468816,30.2705518 217.861872,27.2362058 211.13354,27.2362058 C205.922381,27.2362058 201.83261,28.9512709 198.40248,32.5133292 L200.711221,35.9434594 C203.547675,32.9091135 206.647985,31.5238686 210.4739,31.5238686 C215.091383,31.5238686 218.521513,33.9645381 218.521513,38.2522009 L218.521513,43.9910725 C215.948915,41.0226906 212.320893,39.6374458 207.967266,39.6374458 C202.558215,39.6374458 196.819343,43.0016119 196.819343,50.1257285 C196.819343,57.0519529 202.558215,60.6799752 207.967266,60.6799752 C212.254929,60.6799752 215.882951,59.1628022 218.521513,56.2603844 L218.521513,59.8884067 L223.468816,59.8884067 Z M209.748295,57.1179169 C205.130812,57.1179169 201.898574,54.2154991 201.898574,50.1916925 C201.898574,46.1019219 205.130812,43.199504 209.748295,43.199504 C213.244389,43.199504 216.608555,44.5187849 218.521513,47.1573466 L218.521513,53.1600744 C216.608555,55.7986361 213.244389,57.1179169 209.748295,57.1179169 L209.748295,57.1179169 Z M247.413763,60.6799752 C253.218599,60.6799752 256.648729,58.3052697 259.089399,55.1389957 L255.791197,52.1046497 C253.680347,54.9411035 250.975821,56.2603844 247.677619,56.2603844 C240.883323,56.2603844 236.661624,50.983261 236.661624,43.9251085 C236.661624,36.866956 240.883323,31.6557967 247.677619,31.6557967 C250.975821,31.6557967 253.680347,32.9091135 255.791197,35.8115313 L259.089399,32.7771854 C256.648729,29.6109113 253.218599,27.2362058 247.413763,27.2362058 C237.914941,27.2362058 231.516429,34.4922505 231.516429,43.9251085 C231.516429,53.4239306 237.914941,60.6799752 247.413763,60.6799752 L247.413763,60.6799752 Z M274.063236,60.6799752 C276.965654,60.6799752 278.746683,59.8224427 280,58.6350899 L278.548791,54.9411035 C277.889151,55.666708 276.56987,56.2603844 275.184625,56.2603844 C273.007812,56.2603844 271.952387,54.5453193 271.952387,52.1706138 L271.952387,32.3814011 L278.416863,32.3814011 L278.416863,28.0277743 L271.952387,28.0277743 L271.952387,19.3205208 L267.005084,19.3205208 L267.005084,28.0277743 L261.72796,28.0277743 L261.72796,32.3814011 L267.005084,32.3814011 L267.005084,53.2260384 C267.005084,57.9754495 269.379789,60.6799752 274.063236,60.6799752 L274.063236,60.6799752 Z" id="React"></path>
            </g>
        </g>
    </g>
</svg>

<svg width="280" height="87" viewBox="0 0 280 87" xmlns="http://www.w3.org/2000/svg"><title>react-logo</title><g fill-rule="nonzero" fill="#00D8FF"><ellipse cx="48.871" cy="43.333" rx="8.708" ry="8.708"/><path d="M48.87 27.71c-11.391 0-22.341 1.63-30.47 4.464-8.83 3.078-14.125 7.608-14.125 11.159 0 1.668 1.221 3.725 3.64 5.796 2.692 2.306 6.619 4.418 11.374 6.043 7.596 2.597 17.994 3.957 29.582 3.957 11.03 0 21.312-1.387 28.997-3.934 9.653-3.198 15.598-8.092 15.598-11.862 0-3.54-5.505-8.133-14.53-11.24-8.125-2.797-18.814-4.383-30.065-4.383zm0-4.166c11.69 0 22.833 1.653 31.422 4.61 10.533 3.626 17.34 9.306 17.34 15.179 0 6.125-7.274 12.113-18.454 15.817-8.147 2.7-18.862 4.146-30.307 4.146-12.01 0-22.846-1.418-30.93-4.181C7.189 55.439.11 49.377.11 43.333c0-5.852 6.594-11.494 16.919-15.093 8.6-2.998 20.008-4.696 31.843-4.696z"/><path d="M35.261 35.571c-5.69 9.87-9.75 20.169-11.355 28.627-1.744 9.187-.466 16.036 2.61 17.81 1.446.833 3.838.803 6.84-.257 3.342-1.18 7.134-3.527 10.918-6.835 6.044-5.283 12.417-13.61 18.206-23.648 5.51-9.555 9.444-19.156 11.078-27.085 2.052-9.96.782-17.555-2.484-19.438-3.066-1.768-9.795.706-16.995 6.971-6.483 5.642-13.197 14.109-18.818 23.855zm-3.609-2.08c5.84-10.128 12.84-18.954 19.692-24.917C59.747 1.26 68.067-1.798 73.155 1.136c5.306 3.06 6.86 12.352 4.483 23.888-1.732 8.406-5.832 18.41-11.55 28.325-6 10.404-12.64 19.082-19.073 24.704-8.556 7.48-17.344 10.583-22.58 7.564-5.069-2.924-6.662-11.454-4.622-22.196 1.699-8.947 5.927-19.679 11.84-29.93z"/><path d="M35.274 51.29c5.708 9.86 12.605 18.52 19.13 24.135 7.088 6.1 13.66 8.412 16.734 6.633 1.444-.836 2.612-2.924 3.193-6.055.647-3.484.507-7.941-.469-12.87-1.558-7.876-5.59-17.556-11.396-27.584-5.526-9.546-11.878-17.75-17.932-23.124C36.93 5.673 29.715 2.98 26.452 4.869c-3.063 1.773-4.28 8.838-2.447 18.205 1.65 8.434 5.632 18.479 11.27 28.216zm-3.605 2.088c-5.857-10.117-10.008-20.59-11.753-29.504-2.139-10.932-.634-19.669 4.45-22.611 5.3-3.069 14.127.226 22.934 8.046 6.418 5.698 13.037 14.247 18.772 24.152 6.017 10.394 10.218 20.482 11.877 28.862 2.207 11.149.507 20.312-4.724 23.34-5.064 2.932-13.25.052-21.538-7.08-6.903-5.94-14.088-14.963-20.018-25.205zM155.46 59.888l-11.874-17.942c6.003-.528 11.412-4.881 11.412-12.797 0-8.113-5.739-13.259-13.786-13.259h-17.679v43.998h5.475v-17.48h8.774l11.213 17.48h6.465zm-14.908-22.295h-11.544V20.772h11.544c5.211 0 8.773 3.43 8.773 8.377 0 4.947-3.562 8.444-8.773 8.444zm35.29 23.087c5.212 0 9.5-1.715 12.666-4.881l-2.375-3.233c-2.506 2.573-6.2 4.024-9.828 4.024-6.86 0-11.082-5.013-11.478-11.016h25.792v-1.253c0-9.565-5.673-17.085-15.304-17.085-9.103 0-15.7 7.454-15.7 16.69 0 9.96 6.795 16.754 16.228 16.754zm9.895-18.734h-20.91c.264-4.881 3.628-10.62 10.422-10.62 7.256 0 10.422 5.87 10.488 10.62zm37.732 17.942v-21.9c0-7.717-5.607-10.752-12.335-10.752-5.212 0-9.301 1.715-12.732 5.277l2.31 3.43c2.836-3.034 5.936-4.42 9.762-4.42 4.617 0 8.048 2.442 8.048 6.73v5.738c-2.573-2.968-6.201-4.354-10.555-4.354-5.409 0-11.148 3.365-11.148 10.489 0 6.926 5.74 10.554 11.148 10.554 4.288 0 7.916-1.517 10.555-4.42v3.628h4.947zm-13.72-2.77c-4.618 0-7.85-2.903-7.85-6.926 0-4.09 3.232-6.992 7.85-6.992 3.495 0 6.86 1.319 8.773 3.957v6.003c-1.913 2.639-5.278 3.958-8.774 3.958zm37.665 3.562c5.805 0 9.235-2.375 11.675-5.541l-3.298-3.034c-2.11 2.836-4.815 4.155-8.113 4.155-6.795 0-11.016-5.277-11.016-12.335 0-7.058 4.221-12.27 11.016-12.27 3.298 0 6.002 1.254 8.113 4.157l3.298-3.035c-2.44-3.166-5.87-5.54-11.675-5.54-9.5 0-15.898 7.255-15.898 16.688 0 9.499 6.399 16.755 15.898 16.755zm26.65 0c2.902 0 4.683-.858 5.936-2.045l-1.451-3.694c-.66.726-1.98 1.32-3.364 1.32-2.177 0-3.233-1.716-3.233-4.09V32.38h6.465v-4.353h-6.465V19.32h-4.947v8.707h-5.277v4.353h5.277v20.845c0 4.75 2.375 7.454 7.058 7.454z"/></g></svg>
